build/img/03.svg

<svg width="126" height="84" viewBox="0 0 126 84" fill="none" xmlns="http://www.w3.org/2000/svg">
<path d="M86.0834 80.02L86.0912 80.0234C89.649 81.5845 93.3909 82.3652 97.308 82.3652C102.229 82.3652 106.772 81.2234 110.917 78.933L110.922 78.9297C115.053 76.6109 118.378 73.4875 120.883 69.5661L120.885 69.5626C123.407 65.5787 124.663 61.1038 124.663 56.1652C124.663 52.1425 123.847 48.3439 122.212 44.7807C120.605 41.169 118.23 38.1361 115.095 35.6927C113.252 34.2193 111.168 33.0652 108.85 32.225L122.993 18.5593L123.298 18.2645V17.8402V4.40019V3.40019H122.298H75.048H74.048V4.40019V17.8402V18.8402H75.048H102.627L84.3844 33.9756L83.7386 34.5114L84.1542 35.2405L90.5592 46.4755L91.057 47.3487L91.9277 46.8464C92.769 46.361 93.6387 45.9911 94.5377 45.7342L94.5534 45.7297L94.569 45.7247C95.4481 45.4422 96.3597 45.3002 97.308 45.3002C100.521 45.3002 103.084 46.3753 105.084 48.5027L105.09 48.5083L105.095 48.5138C107.152 50.6349 108.173 53.1667 108.173 56.1652C108.173 58.1595 107.677 59.9561 106.691 61.5783L106.687 61.5844L106.684 61.5907C105.723 63.2244 104.413 64.5191 102.741 65.484L102.733 65.4883C101.11 66.4435 99.3086 66.9252 97.308 66.9252C95.0047 66.9252 92.8594 66.2425 90.8505 64.8513C88.9236 63.4588 87.6147 61.5125 86.9344 58.9533L86.6777 57.9875L85.7117 58.2436L71.8517 61.9186L70.8628 62.1808L71.1475 63.1635C72.2732 67.0491 74.1489 70.4409 76.7763 73.3238L76.781 73.3289C79.4273 76.1927 82.5303 78.4247 86.0834 80.02ZM15.2535 5.46956L15.741 6.34269L15.2535 5.46957C10.8917 7.9049 7.48571 11.3109 5.05038 15.6727C2.60943 20.0446 1.40601 25.1178 1.40601 30.8602V53.5402C1.40601 59.2826 2.60943 64.3558 5.05038 68.7277C7.48571 73.0895 10.8917 76.4955 15.2535 78.9308C19.6254 81.3718 24.6986 82.5752 30.441 82.5752C36.1834 82.5752 41.2567 81.3718 45.6285 78.9308C49.9903 76.4955 53.3963 73.0895 55.8316 68.7277C58.2726 64.3558 59.476 59.2826 59.476 53.5402V30.8602C59.476 25.1178 58.2726 20.0446 55.8316 15.6727C53.3963 11.3109 49.9903 7.9049 45.6285 5.46957C41.2567 3.02862 36.1834 1.8252 30.441 1.8252C24.6986 1.8252 19.6254 3.02862 15.2535 5.46956ZM36.7603 65.3825C34.8946 66.4762 32.7963 67.0302 30.441 67.0302C28.0857 67.0302 25.9875 66.4762 24.1217 65.3825C22.2393 64.279 20.7522 62.7919 19.6487 60.9095C18.555 59.0437 18.001 56.9455 18.001 54.5902V29.7052C18.001 27.3499 18.555 25.2516 19.6487 23.3859C20.7522 21.5035 22.2393 20.0164 24.1217 18.9129C25.9875 17.8192 28.0857 17.2652 30.441 17.2652C32.7963 17.2652 34.8946 17.8192 36.7603 18.9129C38.6427 20.0164 40.1298 21.5035 41.2333 23.3859C42.327 25.2516 42.881 27.3499 42.881 29.7052V54.5902C42.881 56.9455 42.327 59.0437 41.2333 60.9095C40.1298 62.7919 38.6427 64.279 36.7603 65.3825Z" stroke="#FFCC24" stroke-width="2"/>
</svg>

<?xml version="1.0" encoding="utf-8"?>
<!-- Generator: Adobe Illustrator 26.3.1, SVG Export Plug-In . SVG Version: 6.00 Build 0)  -->
<svg version="1.1" id="Слой_1" xmlns="http://www.w3.org/2000/svg" xmlns:xlink="http://www.w3.org/1999/xlink" x="0px" y="0px"
	 viewBox="0 0 126 84" style="enable-background:new 0 0 126 84;" xml:space="preserve">
<style type="text/css">
	.st0{fill:#FFFFFF;stroke:#FFCC24;stroke-width:2;}
</style>
<path class="st0" d="M86.1,80L86.1,80c3.6,1.6,7.3,2.3,11.2,2.3c4.9,0,9.5-1.1,13.6-3.4l0,0c4.1-2.3,7.5-5.4,10-9.4l0,0
	c2.5-4,3.8-8.5,3.8-13.4c0-4-0.8-7.8-2.5-11.4c-1.6-3.6-4-6.6-7.1-9.1c-1.8-1.5-3.9-2.6-6.2-3.5L123,18.6l0.3-0.3v-0.4V4.4v-1h-1H75
	h-1v1v13.4v1h1h27.6L84.4,34l-0.6,0.5l0.4,0.7l6.4,11.2l0.5,0.9l0.9-0.5c0.8-0.5,1.7-0.9,2.6-1.1l0,0l0,0c0.9-0.3,1.8-0.4,2.7-0.4
	c3.2,0,5.8,1.1,7.8,3.2l0,0l0,0c2.1,2.1,3.1,4.7,3.1,7.7c0,2-0.5,3.8-1.5,5.4l0,0l0,0c-1,1.6-2.3,2.9-3.9,3.9l0,0
	c-1.6,1-3.4,1.4-5.4,1.4c-2.3,0-4.4-0.7-6.5-2.1c-1.9-1.4-3.2-3.3-3.9-5.9l-0.3-1l-1,0.3l-13.9,3.7l-1,0.3l0.3,1
	c1.1,3.9,3,7.3,5.6,10.2l0,0C79.4,76.2,82.5,78.4,86.1,80z M15.3,5.5l0.5,0.9L15.3,5.5c-4.4,2.4-7.8,5.8-10.2,10.2
	C2.6,20,1.4,25.1,1.4,30.9v22.7c0,5.7,1.2,10.8,3.6,15.2c2.4,4.4,5.8,7.8,10.2,10.2c4.4,2.4,9.4,3.6,15.2,3.6s10.8-1.2,15.2-3.6
	c4.4-2.4,7.8-5.8,10.2-10.2c2.4-4.4,3.6-9.4,3.6-15.2V30.9c0-5.7-1.2-10.8-3.6-15.2C53.4,11.3,50,7.9,45.6,5.5
	C41.3,3,36.2,1.8,30.4,1.8S19.6,3,15.3,5.5z M36.8,65.4c-1.9,1.1-4,1.6-6.3,1.6s-4.5-0.6-6.3-1.6c-1.9-1.1-3.4-2.6-4.5-4.5
	c-1.1-1.9-1.6-4-1.6-6.3V29.7c0-2.4,0.6-4.5,1.6-6.3c1.1-1.9,2.6-3.4,4.5-4.5c1.9-1.1,4-1.6,6.3-1.6s4.5,0.6,6.3,1.6
	c1.9,1.1,3.4,2.6,4.5,4.5c1.1,1.9,1.6,4,1.6,6.3v24.9c0,2.4-0.6,4.5-1.6,6.3C40.1,62.8,38.6,64.3,36.8,65.4z"/>
</svg>
